Newaita-dark/apps/16/com.github.coralynnmay.goodvibesapp.svg

<svg height="16" viewBox="0 0 16 16" width="16" xmlns="http://www.w3.org/2000/svg" xmlns:xlink="http://www.w3.org/1999/xlink"><linearGradient id="a" gradientUnits="userSpaceOnUse" x1="7.93826" x2="7.93826" y1="14.0169685" y2="14.67849050002"><stop offset="0" stop-opacity=".27451"/><stop offset="1" stop-opacity="0"/></linearGradient><linearGradient id="b"><stop offset="0" stop-opacity=".313726"/><stop offset=".222222" stop-opacity=".27451"/><stop offset="1" stop-opacity="0"/></linearGradient><radialGradient id="c" cx="450.908936" cy="189.579361" gradientTransform="matrix(.00000009 -.0390662 -.0703192 -.00000005 26.065324 31.797666)" gradientUnits="userSpaceOnUse" r="21.166656" xlink:href="#b"/><radialGradient id="d" cx="450.908936" cy="189.579361" gradientTransform="matrix(-.00000009 .0390662 .0703192 .00000005 -10.188807 -3.763739)" gradientUnits="userSpaceOnUse" r="21.166656" xlink:href="#b"/><radialGradient id="e" cx="450.908936" cy="189.579361" gradientTransform="matrix(-.00000009 -.0390662 .0703192 -.00000005 -10.188807 31.797666)" gradientUnits="userSpaceOnUse" r="21.166656" xlink:href="#b"/><radialGradient id="f" cx="450.908936" cy="189.579361" gradientTransform="matrix(.00000009 .0390662 -.0703192 .00000005 26.065323 -3.76374)" gradientUnits="userSpaceOnUse" r="21.166656" xlink:href="#b"/><linearGradient id="g" gradientUnits="userSpaceOnUse" x1="5.29217449998" x2="5.29217449998" y1="14.0169675" y2="1.44805300003"><stop offset="0" stop-color="#29b6f6"/><stop offset="1" stop-color="#4fc3f7"/></linearGradient><linearGradient id="h" gradientUnits="userSpaceOnUse" x1="7.938262" x2="7.938262" y1="14.0169675" y2="1.44805300003"><stop offset="0" stop-color="#5c6bc0"/><stop offset="1" stop-color="#7986cb"/></linearGradient><path d="m2.976562 13.96875h9.921876v.734375h-9.921876zm0 0" fill="url(#a)"/><path d="m12.898438 14.015625h1.324218v-.660156h-1.324218zm0 0" fill="url(#c)"/><path d="m2.976562 14.015625h-1.324218v.664063h1.324218zm0 0" fill="url(#d)"/><path d="m2.976562 14.015625h-1.324218v-.660156h1.324218zm0 0" fill="url(#e)"/><path d="m12.898438 14.015625h1.324218v.664063h-1.324218zm0 0" fill="url(#f)"/><path d="m2.316406 1.449219h11.246094c.363281 0 .660156.296875.660156.660156v11.246094c0 .367187-.296875.660156-.660156.660156h-11.246094c-.367187 0-.664062-.292969-.664062-.660156v-11.246094c0-.363281.296875-.660156.664062-.660156zm0 0" fill="url(#g)"/><path d="m2.316406 1.449219c-.367187 0-.664062.292969-.664062.660156v.082031c0-.367187.296875-.660156.664062-.660156h11.246094c.363281 0 .660156.292969.660156.660156v-.082031c0-.367187-.296875-.660156-.660156-.660156zm0 0" fill="#e6e6e6" fill-opacity=".392157"/><path d="m2.316406 14.015625c-.367187 0-.664062-.292969-.664062-.660156v-.082031c0 .367187.296875.660156.664062.660156h11.246094c.363281 0 .660156-.292969.660156-.660156v.082031c0 .367187-.296875.660156-.660156.660156zm0 0" fill-opacity=".196078"/><path d="m74.117922-168.629428h359.840637c11.62389 0 21.122983 9.499093 21.122983 21.122983v359.840637c0 11.748878-9.499093 21.122982-21.122983 21.122982h-359.840637c-11.748878 0-21.247971-9.374104-21.247971-21.122982v-359.840637c0-11.62389 9.499093-21.122983 21.247971-21.122983zm0 0" fill="none" stroke="#212121" stroke-linecap="round" stroke-width="3" transform="matrix(.031253 0 0 .031253 0 6.719392)"/><path d="m4.011719 10.558594c-1.316407-.34375-1.863281-1.34375-1.5625-2.863282.367187-1.847656 1.660156-2.875 3.613281-2.867187 2.945312.015625 3.828125.074219 3.8125.253906-.015625.160157-.035156.175781-.265625.199219-.332031.039062-.332031-.027344.082031 1.925781.375 1.746094.410156 1.871094.539063 1.730469.167969-.179688 2.167969-3.554688 2.136719-3.601562-.019532-.03125-.152344-.054688-.300782-.054688-.28125 0-.300781-.019531-.238281-.257812.035156-.132813 1.660156-.203126 1.660156-.074219 0 .203125-.113281.332031-.296875.332031-.246094 0-.199218-.070312-1.699218 2.429688-1.882813 3.136718-1.640626 2.820312-2.167969 2.800781-.496094-.015625-.394531.265625-1.054688-2.882813-.398437-1.90625-.835937-2.429687-2.015625-2.429687-1.34375 0-2.214844 1.261719-2.308594 3.335937-.0625 1.460938.753907 2.082032 2.066407 1.574219.351562-.136719.363281-.152344.515625-.914063.171875-.851562.171875-.855468-.222656-.855468-.308594 0-.308594 0-.269532-.175782.054688-.265624.046875-.265624 1.066406-.25 1.117188.019532 1.023438-.136718.757813 1.253907-.195313 1.035156-.144531.984375-1.253906 1.285156-.628907.171875-2.113281.230469-2.59375.105469zm0 0" fill="url(#h)"/><path d="m6.0625 4.859375c-1.953125-.007813-3.246094 1.015625-3.613281 2.863281-.058594.296875-.082031.570313-.078125.824219.003906-.222656.03125-.457031.078125-.707031.367187-1.851563 1.660156-2.875 3.613281-2.867188 2.734375.011719 3.691406.0625 3.800781.214844.003907-.019531.007813-.046875.011719-.078125.015625-.179687-.867188-.238281-3.8125-.25zm6.910156.050781c-.480468 0-1.121094.058594-1.144531.140625-.027344.105469-.039063.167969-.019531.203125.003906-.023437.011718-.054687.019531-.089844.035156-.125 1.511719-.191406 1.648437-.085937.007813-.03125.011719-.0625.011719-.097656 0-.050781-.230469-.070313-.515625-.070313zm-.644531.546875c-.28125.546875-1.945313 3.347657-2.097656 3.507813-.128907.140625-.164063.019531-.539063-1.730469-.199218-.9375-.300781-1.410156-.320312-1.652344-.019532.195313.082031.652344.320312 1.769531.375 1.746094.410156 1.871094.539063 1.730469.167969-.179687 2.167969-3.554687 2.136719-3.605469-.003907-.007812-.019532-.015624-.039063-.019531zm-5.757813 2.480469c-.488281.003906-.492187.046875-.535156.253906-.015625.074219-.023437.117188-.007812.144532.003906-.011719.003906-.019532.007812-.03125.054688-.265626.046875-.261719 1.066406-.246094.664063.011718.898438-.039063.925782.210937.027344-.382812-.171875-.3125-.925782-.324219-.222656-.003906-.394531-.007812-.53125-.007812zm.066407.683594c-.011719.128906-.050781.316406-.109375.601562-.152344.761719-.164063.78125-.515625.914063-1.246094.484375-2.046875-.054688-2.066407-1.355469-.023437 1.386719.785157 1.964844 2.066407 1.472656.351562-.136718.363281-.15625.515625-.914062.082031-.390625.121094-.601563.109375-.71875zm0 0" fill="#fff" fill-opacity=".392157"/><path d="m13.441406 5.203125c-.050781.085937-.136718.132813-.25.132813-.246094 0-.199218-.070313-1.699218 2.429687-1.882813 3.136719-1.640626 2.820313-2.167969 2.800781-.496094-.015625-.394531.265625-1.054688-2.882812-.398437-1.90625-.835937-2.429688-2.015625-2.429688-1.34375 0-2.214844 1.261719-2.308594 3.335938-.003906.09375-.003906.1875 0 .273437 0-.015625 0-.027343 0-.039062.09375-2.078125.964844-3.339844 2.308594-3.339844 1.179688 0 1.617188.523437 2.015625 2.429687.660157 3.148438.558594 2.867188 1.054688 2.882813.527343.019531.285156.335937 2.167969-2.800781 1.5-2.496094 1.453124-2.429688 1.699218-2.429688.183594 0 .296875-.128906.296875-.328125 0-.015625-.019531-.027343-.046875-.035156zm-3.628906.089844c-.035156.023437-.097656.03125-.203125.042969-.1875.019531-.269531.007812-.230469.347656.027344-.101563.105469-.101563.230469-.117188.230469-.023437.25-.039062.265625-.199218 0-.027344-.019531-.050782-.0625-.074219zm2.019531.011719c-.003906.003906-.003906.003906-.003906.003906-.0625.238281-.042969.257812.238281.257812.074219 0 .148438.007813.207032.019532.0625-.117188.097656-.191407.09375-.199219-.019532-.027344-.152344-.050781-.300782-.050781-.125 0-.199218-.003907-.234375-.03125zm-3.8125 3.0625c-.023437.183593-.082031.457031-.160156.855468-.195313 1.035156-.144531.984375-1.253906 1.285156-.628907.171876-2.113281.230469-2.59375.105469-1.042969-.273437-1.601563-.957031-1.640625-1.984375-.039063 1.15625.523437 1.921875 1.640625 2.214844.480469.125 1.964843.066406 2.59375-.105469 1.109375-.300781 1.058593-.25 1.253906-1.285156.117187-.613281.199219-.925781.160156-1.085937zm-1.96875.011718c-.003906.019532-.011719.042969-.015625.070313-.039062.175781-.039062.175781.269532.175781.191406 0 .289062.003906.320312.101562.046875-.328124-.035156-.332031-.320312-.332031-.140626 0-.214844 0-.253907-.015625zm0 0" fill-opacity=".235294"/><path d="m128.362742 122.842738c-42.120978-10.99895-59.619307-42.995894-49.995226-91.616251 11.748878-59.119355 53.119928-91.991216 115.61396-91.74124 94.241.499953 122.488303 2.374774 121.98835 8.124225-.499952 5.12451-1.124892 5.624462-8.499188 6.374391-10.623985 1.24988-10.623985-.874917 2.624749 61.619116 11.998855 55.869664 13.123747 59.869282 17.248353 55.369712 5.374487-5.749451 69.368376-113.739138 68.368471-115.238995-.62494-.999905-4.874534-1.749833-9.624081-1.749833-8.99914 0-9.624081-.62494-7.624271-8.249212 1.124892-4.249595 53.119927-6.49938 53.119927-2.374774 0 6.49938-3.624654 10.623986-9.499093 10.623986-7.874248 0-6.374391-2.249785-54.369808 77.742576-60.244247 100.365415-52.494987 90.241382-69.368376 89.616442-15.873484-.499952-12.623794 8.499188-33.746777-92.241192-12.748783-60.994175-26.747446-77.742576-64.493841-77.742576-42.995894 0-70.868233 40.371145-73.867946 106.739807-1.999809 46.745536 24.122696 66.618639 66.118686 50.37019 11.248926-4.374582 11.62389-4.874534 16.498424-29.247207 5.499475-27.247398 5.499475-27.372386-7.124319-27.372386-9.874057 0-9.874057 0-8.624177-5.624463 1.749833-8.499188 1.499857-8.499188 34.121742-7.999236 35.746586.62494 32.746873-4.374582 24.247684 40.121169-6.249403 33.121837-4.624558 31.496992-40.121168 41.121073-20.123079 5.499475-67.618543 7.374296-82.992075 3.374678zm0 0" fill="none" stroke="#212121" stroke-width="3" transform="matrix(.031253 0 0 .031253 0 6.719392)"/></svg>

<?xml version="1.0" encoding="UTF-8"?>
<svg xmlns="http://www.w3.org/2000/svg" xmlns:xlink="http://www.w3.org/1999/xlink" width="16px" height="16px" viewBox="0 0 16 16" version="1.1">
<defs>
<linearGradient id="linear0" gradientUnits="userSpaceOnUse" x1="254" y1="233.5" x2="254" y2="254.666672" gradientTransform="matrix(0.031253,0,0,0.031253,-0.00000190753,6.719393)">
<stop offset="0" style="stop-color:rgb(0%,0%,0%);stop-opacity:0.27451;"/>
<stop offset="1" style="stop-color:rgb(0%,0%,0%);stop-opacity:0;"/>
</linearGradient>
<radialGradient id="radial0" gradientUnits="userSpaceOnUse" cx="450.908936" cy="189.579361" fx="450.908936" fy="189.579361" r="21.166656" gradientTransform="matrix(0.0000000870852,-0.0390662,-0.0703192,-0.0000000507693,26.065324,31.797666)">
<stop offset="0" style="stop-color:rgb(0%,0%,0%);stop-opacity:0.313726;"/>
<stop offset="0.222222" style="stop-color:rgb(0%,0%,0%);stop-opacity:0.27451;"/>
<stop offset="1" style="stop-color:rgb(0%,0%,0%);stop-opacity:0;"/>
</radialGradient>
<radialGradient id="radial1" gradientUnits="userSpaceOnUse" cx="450.908936" cy="189.579361" fx="450.908936" fy="189.579361" r="21.166656" gradientTransform="matrix(-0.0000000870852,0.0390662,0.0703192,0.0000000507693,-10.188807,-3.763739)">
<stop offset="0" style="stop-color:rgb(0%,0%,0%);stop-opacity:0.313726;"/>
<stop offset="0.222222" style="stop-color:rgb(0%,0%,0%);stop-opacity:0.27451;"/>
<stop offset="1" style="stop-color:rgb(0%,0%,0%);stop-opacity:0;"/>
</radialGradient>
<radialGradient id="radial2" gradientUnits="userSpaceOnUse" cx="450.908936" cy="189.579361" fx="450.908936" fy="189.579361" r="21.166656" gradientTransform="matrix(-0.0000000870852,-0.0390662,0.0703192,-0.0000000507693,-10.188807,31.797666)">
<stop offset="0" style="stop-color:rgb(0%,0%,0%);stop-opacity:0.313726;"/>
<stop offset="0.222222" style="stop-color:rgb(0%,0%,0%);stop-opacity:0.27451;"/>
<stop offset="1" style="stop-color:rgb(0%,0%,0%);stop-opacity:0;"/>
</radialGradient>
<radialGradient id="radial3" gradientUnits="userSpaceOnUse" cx="450.908936" cy="189.579361" fx="450.908936" fy="189.579361" r="21.166656" gradientTransform="matrix(0.0000000870852,0.0390662,-0.0703192,0.0000000507693,26.065323,-3.76374)">
<stop offset="0" style="stop-color:rgb(0%,0%,0%);stop-opacity:0.313726;"/>
<stop offset="0.222222" style="stop-color:rgb(0%,0%,0%);stop-opacity:0.27451;"/>
<stop offset="1" style="stop-color:rgb(0%,0%,0%);stop-opacity:0;"/>
</radialGradient>
<linearGradient id="linear1" gradientUnits="userSpaceOnUse" x1="169.333328" y1="233.5" x2="169.333328" y2="-168.666656" gradientTransform="matrix(0.031253,0,0,0.031253,0,6.719392)">
<stop offset="0" style="stop-color:rgb(16.078432%,71.372551%,96.470588%);stop-opacity:1;"/>
<stop offset="1" style="stop-color:rgb(30.980393%,76.47059%,96.862745%);stop-opacity:1;"/>
</linearGradient>
<linearGradient id="linear2" gradientUnits="userSpaceOnUse" x1="254" y1="233.5" x2="254" y2="-168.666656" gradientTransform="matrix(0.031253,0,0,0.031253,0,6.719392)">
<stop offset="0" style="stop-color:rgb(36.078432%,41.960785%,75.294119%);stop-opacity:1;"/>
<stop offset="1" style="stop-color:rgb(47.450981%,52.549022%,79.607844%);stop-opacity:1;"/>
</linearGradient>
</defs>
<g id="surface1">
<path style=" stroke:none;fill-rule:nonzero;fill:url(#linear0);" d="M 2.976562 13.96875 L 12.898438 13.96875 L 12.898438 14.703125 L 2.976562 14.703125 Z M 2.976562 13.96875 "/>
<path style=" stroke:none;fill-rule:nonzero;fill:url(#radial0);" d="M 12.898438 14.015625 L 14.222656 14.015625 L 14.222656 13.355469 L 12.898438 13.355469 Z M 12.898438 14.015625 "/>
<path style=" stroke:none;fill-rule:nonzero;fill:url(#radial1);" d="M 2.976562 14.015625 L 1.652344 14.015625 L 1.652344 14.679688 L 2.976562 14.679688 Z M 2.976562 14.015625 "/>
<path style=" stroke:none;fill-rule:nonzero;fill:url(#radial2);" d="M 2.976562 14.015625 L 1.652344 14.015625 L 1.652344 13.355469 L 2.976562 13.355469 Z M 2.976562 14.015625 "/>
<path style=" stroke:none;fill-rule:nonzero;fill:url(#radial3);" d="M 12.898438 14.015625 L 14.222656 14.015625 L 14.222656 14.679688 L 12.898438 14.679688 Z M 12.898438 14.015625 "/>
<path style=" stroke:none;fill-rule:nonzero;fill:url(#linear1);" d="M 2.316406 1.449219 L 13.5625 1.449219 C 13.925781 1.449219 14.222656 1.746094 14.222656 2.109375 L 14.222656 13.355469 C 14.222656 13.722656 13.925781 14.015625 13.5625 14.015625 L 2.316406 14.015625 C 1.949219 14.015625 1.652344 13.722656 1.652344 13.355469 L 1.652344 2.109375 C 1.652344 1.746094 1.949219 1.449219 2.316406 1.449219 Z M 2.316406 1.449219 "/>
<path style=" stroke:none;fill-rule:nonzero;fill:rgb(90.196079%,90.196079%,90.196079%);fill-opacity:0.392157;" d="M 2.316406 1.449219 C 1.949219 1.449219 1.652344 1.742188 1.652344 2.109375 L 1.652344 2.191406 C 1.652344 1.824219 1.949219 1.53125 2.316406 1.53125 L 13.5625 1.53125 C 13.925781 1.53125 14.222656 1.824219 14.222656 2.191406 L 14.222656 2.109375 C 14.222656 1.742188 13.925781 1.449219 13.5625 1.449219 Z M 2.316406 1.449219 "/>
<path style=" stroke:none;fill-rule:nonzero;fill:rgb(0%,0%,0%);fill-opacity:0.196078;" d="M 2.316406 14.015625 C 1.949219 14.015625 1.652344 13.722656 1.652344 13.355469 L 1.652344 13.273438 C 1.652344 13.640625 1.949219 13.933594 2.316406 13.933594 L 13.5625 13.933594 C 13.925781 13.933594 14.222656 13.640625 14.222656 13.273438 L 14.222656 13.355469 C 14.222656 13.722656 13.925781 14.015625 13.5625 14.015625 Z M 2.316406 14.015625 "/>
<path style="fill:none;stroke-width:3;stroke-linecap:round;stroke-linejoin:miter;stroke:rgb(12.941177%,12.941177%,12.941177%);stroke-opacity:1;stroke-miterlimit:4;" d="M 74.117922 -168.629428 L 433.958559 -168.629428 C 445.582449 -168.629428 455.081542 -159.130335 455.081542 -147.506445 L 455.081542 212.334192 C 455.081542 224.08307 445.582449 233.457174 433.958559 233.457174 L 74.117922 233.457174 C 62.369044 233.457174 52.869951 224.08307 52.869951 212.334192 L 52.869951 -147.506445 C 52.869951 -159.130335 62.369044 -168.629428 74.117922 -168.629428 Z M 74.117922 -168.629428 " transform="matrix(0.031253,0,0,0.031253,0,6.719392)"/>
<path style=" stroke:none;fill-rule:nonzero;fill:url(#linear2);" d="M 4.011719 10.558594 C 2.695312 10.214844 2.148438 9.214844 2.449219 7.695312 C 2.816406 5.847656 4.109375 4.820312 6.0625 4.828125 C 9.007812 4.84375 9.890625 4.902344 9.875 5.082031 C 9.859375 5.242188 9.839844 5.257812 9.609375 5.28125 C 9.277344 5.320312 9.277344 5.253906 9.691406 7.207031 C 10.066406 8.953125 10.101562 9.078125 10.230469 8.9375 C 10.398438 8.757812 12.398438 5.382812 12.367188 5.335938 C 12.347656 5.304688 12.214844 5.28125 12.066406 5.28125 C 11.785156 5.28125 11.765625 5.261719 11.828125 5.023438 C 11.863281 4.890625 13.488281 4.820312 13.488281 4.949219 C 13.488281 5.152344 13.375 5.28125 13.191406 5.28125 C 12.945312 5.28125 12.992188 5.210938 11.492188 7.710938 C 9.609375 10.847656 9.851562 10.53125 9.324219 10.511719 C 8.828125 10.496094 8.929688 10.777344 8.269531 7.628906 C 7.871094 5.722656 7.433594 5.199219 6.253906 5.199219 C 4.910156 5.199219 4.039062 6.460938 3.945312 8.535156 C 3.882812 9.996094 4.699219 10.617188 6.011719 10.109375 C 6.363281 9.972656 6.375 9.957031 6.527344 9.195312 C 6.699219 8.34375 6.699219 8.339844 6.304688 8.339844 C 5.996094 8.339844 5.996094 8.339844 6.035156 8.164062 C 6.089844 7.898438 6.082031 7.898438 7.101562 7.914062 C 8.21875 7.933594 8.125 7.777344 7.859375 9.167969 C 7.664062 10.203125 7.714844 10.152344 6.605469 10.453125 C 5.976562 10.625 4.492188 10.683594 4.011719 10.558594 Z M 4.011719 10.558594 "/>
<path style=" stroke:none;fill-rule:nonzero;fill:rgb(100%,100%,100%);fill-opacity:0.392157;" d="M 6.0625 4.859375 C 4.109375 4.851562 2.816406 5.875 2.449219 7.722656 C 2.390625 8.019531 2.367188 8.292969 2.371094 8.546875 C 2.375 8.324219 2.402344 8.089844 2.449219 7.839844 C 2.816406 5.988281 4.109375 4.964844 6.0625 4.972656 C 8.796875 4.984375 9.753906 5.035156 9.863281 5.1875 C 9.867188 5.167969 9.871094 5.140625 9.875 5.109375 C 9.890625 4.929688 9.007812 4.871094 6.0625 4.859375 Z M 12.972656 4.910156 C 12.492188 4.910156 11.851562 4.96875 11.828125 5.050781 C 11.800781 5.15625 11.789062 5.21875 11.808594 5.253906 C 11.8125 5.230469 11.820312 5.199219 11.828125 5.164062 C 11.863281 5.039062 13.339844 4.972656 13.476562 5.078125 C 13.484375 5.046875 13.488281 5.015625 13.488281 4.980469 C 13.488281 4.929688 13.257812 4.910156 12.972656 4.910156 Z M 12.328125 5.457031 C 12.046875 6.003906 10.382812 8.804688 10.230469 8.964844 C 10.101562 9.105469 10.066406 8.984375 9.691406 7.234375 C 9.492188 6.296875 9.390625 5.824219 9.371094 5.582031 C 9.351562 5.777344 9.453125 6.234375 9.691406 7.351562 C 10.066406 9.097656 10.101562 9.222656 10.230469 9.082031 C 10.398438 8.902344 12.398438 5.527344 12.367188 5.476562 C 12.363281 5.46875 12.347656 5.460938 12.328125 5.457031 Z M 6.570312 7.9375 C 6.082031 7.941406 6.078125 7.984375 6.035156 8.191406 C 6.019531 8.265625 6.011719 8.308594 6.027344 8.335938 C 6.03125 8.324219 6.03125 8.316406 6.035156 8.304688 C 6.089844 8.039062 6.082031 8.042969 7.101562 8.058594 C 7.765625 8.070312 8 8.019531 8.027344 8.269531 C 8.054688 7.886719 7.855469 7.957031 7.101562 7.945312 C 6.878906 7.941406 6.707031 7.9375 6.570312 7.9375 Z M 6.636719 8.621094 C 6.625 8.75 6.585938 8.9375 6.527344 9.222656 C 6.375 9.984375 6.363281 10.003906 6.011719 10.136719 C 4.765625 10.621094 3.964844 10.082031 3.945312 8.78125 C 3.921875 10.167969 4.730469 10.746094 6.011719 10.253906 C 6.363281 10.117188 6.375 10.097656 6.527344 9.339844 C 6.609375 8.949219 6.648438 8.738281 6.636719 8.621094 Z M 6.636719 8.621094 "/>
<path style=" stroke:none;fill-rule:nonzero;fill:rgb(0%,0%,0%);fill-opacity:0.235294;" d="M 13.441406 5.203125 C 13.390625 5.289062 13.304688 5.335938 13.191406 5.335938 C 12.945312 5.335938 12.992188 5.265625 11.492188 7.765625 C 9.609375 10.902344 9.851562 10.585938 9.324219 10.566406 C 8.828125 10.550781 8.929688 10.832031 8.269531 7.683594 C 7.871094 5.777344 7.433594 5.253906 6.253906 5.253906 C 4.910156 5.253906 4.039062 6.515625 3.945312 8.589844 C 3.941406 8.683594 3.941406 8.777344 3.945312 8.863281 C 3.945312 8.847656 3.945312 8.835938 3.945312 8.824219 C 4.039062 6.746094 4.910156 5.484375 6.253906 5.484375 C 7.433594 5.484375 7.871094 6.007812 8.269531 7.914062 C 8.929688 11.0625 8.828125 10.78125 9.324219 10.796875 C 9.851562 10.816406 9.609375 11.132812 11.492188 7.996094 C 12.992188 5.5 12.945312 5.566406 13.191406 5.566406 C 13.375 5.566406 13.488281 5.4375 13.488281 5.238281 C 13.488281 5.222656 13.46875 5.210938 13.441406 5.203125 Z M 9.8125 5.292969 C 9.777344 5.316406 9.714844 5.324219 9.609375 5.335938 C 9.421875 5.355469 9.339844 5.34375 9.378906 5.683594 C 9.40625 5.582031 9.484375 5.582031 9.609375 5.566406 C 9.839844 5.542969 9.859375 5.527344 9.875 5.367188 C 9.875 5.339844 9.855469 5.316406 9.8125 5.292969 Z M 11.832031 5.304688 C 11.828125 5.308594 11.828125 5.308594 11.828125 5.308594 C 11.765625 5.546875 11.785156 5.566406 12.066406 5.566406 C 12.140625 5.566406 12.214844 5.574219 12.273438 5.585938 C 12.335938 5.46875 12.371094 5.394531 12.367188 5.386719 C 12.347656 5.359375 12.214844 5.335938 12.066406 5.335938 C 11.941406 5.335938 11.867188 5.332031 11.832031 5.304688 Z M 8.019531 8.367188 C 7.996094 8.550781 7.9375 8.824219 7.859375 9.222656 C 7.664062 10.257812 7.714844 10.207031 6.605469 10.507812 C 5.976562 10.679688 4.492188 10.738281 4.011719 10.613281 C 2.96875 10.339844 2.410156 9.65625 2.371094 8.628906 C 2.332031 9.785156 2.894531 10.550781 4.011719 10.84375 C 4.492188 10.96875 5.976562 10.910156 6.605469 10.738281 C 7.714844 10.4375 7.664062 10.488281 7.859375 9.453125 C 7.976562 8.839844 8.058594 8.527344 8.019531 8.367188 Z M 6.050781 8.378906 C 6.046875 8.398438 6.039062 8.421875 6.035156 8.449219 C 5.996094 8.625 5.996094 8.625 6.304688 8.625 C 6.496094 8.625 6.59375 8.628906 6.625 8.726562 C 6.671875 8.398438 6.589844 8.394531 6.304688 8.394531 C 6.164062 8.394531 6.089844 8.394531 6.050781 8.378906 Z M 6.050781 8.378906 "/>
<path style="fill:none;stroke-width:3;stroke-linecap:butt;stroke-linejoin:miter;stroke:rgb(12.941177%,12.941177%,12.941177%);stroke-opacity:1;stroke-miterlimit:4;" d="M 128.362742 122.842738 C 86.241764 111.843788 68.743435 79.846844 78.367516 31.226487 C 90.116394 -27.892868 131.487444 -60.764729 193.981476 -60.514753 C 288.222476 -60.0148 316.469779 -58.139979 315.969826 -52.390528 C 315.469874 -47.266018 314.844934 -46.766066 307.470638 -46.016137 C 296.846653 -44.766257 296.846653 -46.891054 310.095387 15.602979 C 322.094242 71.472643 323.219134 75.472261 327.34374 70.972691 C 332.718227 65.22324 396.712116 -42.766447 395.712211 -44.266304 C 395.087271 -45.266209 390.837677 -46.016137 386.08813 -46.016137 C 377.08899 -46.016137 376.464049 -46.641077 378.463859 -54.265349 C 379.588751 -58.514944 431.583786 -60.764729 431.583786 -56.640123 C 431.583786 -50.140743 427.959132 -46.016137 422.084693 -46.016137 C 414.210445 -46.016137 415.710302 -48.265922 367.714885 31.726439 C 307.470638 132.091854 315.219898 121.967821 298.346509 121.342881 C 282.473025 120.842929 285.722715 129.842069 264.599732 29.101689 C 251.850949 -31.892486 237.852286 -48.640887 200.105891 -48.640887 C 157.109997 -48.640887 129.237658 -8.269742 126.237945 58.09892 C 124.238136 104.844456 150.360641 124.717559 192.356631 108.46911 C 203.605557 104.094528 203.980521 103.594576 208.855055 79.221903 C 214.35453 51.974505 214.35453 51.849517 201.730736 51.849517 C 191.856679 51.849517 191.856679 51.849517 193.106559 46.225054 C 194.856392 37.725866 194.606416 37.725866 227.228301 38.225818 C 262.974887 38.850758 259.975174 33.851236 251.475985 78.346987 C 245.226582 111.468824 246.851427 109.843979 211.354817 119.46806 C 191.231738 124.967535 143.736274 126.842356 128.362742 122.842738 Z M 128.362742 122.842738 " transform="matrix(0.031253,0,0,0.031253,0,6.719392)"/>
</g>
</svg>
